!!!COM:	la Rue, Pierre de
!!!CDT:	~1452///-1518/11/20
!!!OPR:	Missa Pro fidelibus defunctis
!!!ONM:	3
!!!OTL:	Tractus
!!!AGN:	Mass; Tractus
!!!SCT:	Rue1024c
!!!SCA:	Rue1024c
!!!voices-OPR:	4-5
!!!voices:	4
**kern	**kern	**kern	**kern
*Ivox	*Ivox	*Ivox	*Ivox
*I"Bassus	*I"Tenor	*I"Contra	*I"Discantus
*I'B	*I'T	*I'C	*I'D
*staff4	*staff3	*staff2	*staff1
*>[A,B,C]	*>[A,B,C]	*>[A,B,C]	*>[A,B,C]
*>A	*>A	*>A	*>A
*clefF4	*clefGv2	*clefGv2	*clefG2
*k[]	*k[]	*k[]	*k[]
*M2/1	*M2/1	*M2/1	*M2/1
*met(C|)	*met(C|)	*met(C2)	*met(C2)
!!primary-mensuration: met(C2)
!!section: Sicut cervus
!!!OMD: Sicut cervus
=1-	=1-	=1-	=1-
0r	0r	0r	1g
.	.	.	1g
=2	=2	=2.	=2.
0r	0r	0r	1a
.	.	.	[1b
=3	=3	=3	=3
0r	0r	1d	1b]
.	.	1d	1a
=4	=4	=4.	=4.
0r	0r	1e	1g
.	.	[1f	[1a
=5	=5	=5	=5
0r	0r	1f]	2a/]
.	.	.	2a/
.	.	1e	[1cc
=6	=6	=6.	=6.
0r	0r	2e\	2cc\]
.	.	2e\	2b\
.	.	[1g	1g
=7	=7	=7	=7
0r	0r	2g\]	0b
.	.	2f\	.
.	.	[1d	.
=8	=8	=8.	=8.
0r	0r	1d]	0a
.	.	[1f	.
=9	=9	=9	=9
0r	0r	1f]	2r
.	.	.	1dd
.	.	2f\	.
.	.	[2e\	[2cc\
=10	=10	=10.	=10.
0r	0r	1e]	2cc\]
.	.	.	1b
.	.	[1d	.
.	.	.	2b\
=11	=11	=11	=11
0r	0r	2d\]	2.a/
.	.	1c	.
.	.	.	4b\
.	.	.	2cc\
.	.	2e\	[2b\
=12	=12	=12.	=12.
0r	0r	2d\	4b\]
.	.	.	4cc\
.	.	2.f\	2dd\
.	.	.	2cc\
.	.	4e\	.
.	.	4d\	4b\
.	.	4c\	4a/
=13	=13	=13	=13
0r	0r	4d\	4b\
.	.	4c\	4a/
.	.	4B\	1a
.	.	4A/	.
.	.	1B	.
.	.	.	2g#i/
=14	=14	=14.	=14.
0r	0r	[0A	0a
=15	=15	=15	=15
0r	0r	0A]	1r
.	.	.	1a
=16	=16	=16.	=16.
0r	0r	1r	1a
.	.	1d	1a
=17	=17	=17	=17
0r	0r	1d	1b
.	.	1d	1b
=18	=18	=18.	=18.
0r	0r	1e	[0g
.	.	1e	.
=19	=19	=19	=19
0r	0r	1c	0g_
.	.	2r	.
.	.	[2c\	.
=20	=20	=20.	=20.
0r	0r	2c\]	0g_
.	.	2B\	.
.	.	2c\	.
.	.	[2e\	.
=21	=21	=21	=21
0r	0r	2e\]	0g]
.	.	4d\	.
.	.	4c\	.
.	.	2B\	.
.	.	[2c\	.
=22	=22	=22.	=22.
0r	0r	4c\]	2r
.	.	4G/	.
.	.	2B\	1g
.	.	1A	.
.	.	.	2f/
=23	=23	=23	=23
0r	0r	0G	2g/
.	.	.	1b-i
.	.	.	4a/
.	.	.	4g/
=24	=24	=24.	=24.
0r	0r	2r	2f/
.	.	2G/	1g
.	.	1A	.
.	.	.	2f#i/
=25	=25	=25	=25
0r	0r	1B	1g
.	.	[1c	2r
.	.	.	2g/
=26	=26	=26.	=26.
0r	0r	2c\]	1a
.	.	4B\	.
.	.	4A/	.
.	.	2G/	1b
.	.	2B\	.
=27	=27	=27	=27
0r	0r	1A	1cc
.	.	1G	1b
=28	=28	=28.	=28.
0r	0r	2r	1g
.	.	1g	.
.	.	.	[1dd
.	.	2f\	.
=29	=29	=29	=29
0r	0r	2g\	1dd]
.	.	1G	.
.	.	.	[1dd
.	.	2F/	.
=30	=30	=30.	=30.
0r	0r	2G/	2dd\]
.	.	1g	2b\
.	.	.	1cc
.	.	2f\	.
=31	=31	=31	=31
0r	0r	2g\	2b\
.	.	2G/	1dd
.	.	1A	.
.	.	.	2cc\
=32	=32	=32.	=32.
0r	0r	2G/	2b\
.	.	1d	2.a/
.	.	.	4g/
.	.	2c\	2e/
=33	=33	=33	=33
0r	0r	1d	2f/
.	.	.	4d/
.	.	.	4e/
.	.	2r	4f/
.	.	.	4g/
.	.	2d\	[2a/
=34	=34	=34.	=34.
0r	0r	2c\	4a/]
.	.	.	4b\
.	.	2A/	2cc\
.	.	1c	4a/
.	.	.	4b\
.	.	.	[2cc\
=35	=35	=35	=35
0r	0r	4A/	4cc\]
.	.	4B\	4b\
.	.	2c\	4a/
.	.	.	4b\
.	.	4A/	4cc\
.	.	4B\	4b\
.	.	[2c\	4a/
.	.	.	4g/
=36	=36	=36.	=36.
0r	0r	4c\]	2a/
.	.	4B\	.
.	.	4A/	1g
.	.	4G/	.
.	.	1A	.
.	.	.	2f#i/
=37	=37	=37	=37
0r	0r	0Gl	0gl
!!LO:LB:i:g=z
=38||	=38||	=38||	=38||
*>B	*>B	*>B	*>B
*clefF4	*clefGv2	*clefGv2	*clefG2
*k[]	*k[]	*k[]	*k[]
*M2/1	*M2/1	*M2/1	*M2/1
*met(C|)	*met(C|)	*met(C2)	*met(C2)
!!primary-mensuration: met(C2)
!!section: Sitivit anima mea
!!!OMD: Sitivit anima mea
0r	1G	0r	0r
.	1B	.	.
=39	=39	=39	=39
1C	0c	0r	0r
1E	.	.	.
=40	=40	=40	=40
0F	2r	0r	0r
.	1c	.	.
.	[2c\	.	.
=41	=41	=41	=41
2r	2c\]	0r	0r
1F	1d	.	.
[2F\	[2c\	.	.
=42	=42	=42	=42
2F\]	2c\]	0r	0r
1G	2B\	.	.
.	2G/	.	.
[2F\	[2A/	.	.
=43	=43	=43	=43
2F\]	2A/]	0r	0r
2E\	2G/	.	.
2C/	2r	.	.
2E\	2G/	.	.
=44	=44	=44	=44
1D	1A	0r	0r
1C	[1c	.	.
=45	=45	=45	=45
2r	0c_	0r	0r
1C	.	.	.
2D\	.	.	.
=46	=46	=46	=46
2E\	1c]	0r	0r
2F\	.	.	.
1G	[1B	.	.
=47	=47	=47	=47
2E\	1B]	0r	0r
2F\	.	.	.
1D	1d	.	.
=48	=48	=48	=48
[0C	0e	0r	0r
=49	=49	=49	=49
0C]	1c	0r	0r
.	1A	.	.
=50	=50	=50	=50
0D	1r	0r	0r
.	1d	.	.
=51	=51	=51	=51
1r	2d\	0r	0r
.	1B	.	.
1G	.	.	.
.	2G/	.	.
=52	=52	=52	=52
2G\	1G	0r	0r
1E	.	.	.
.	2r	.	.
2C/	2G/	.	.
=53	=53	=53	=53
1C	2A/	0r	0r
.	2A/	.	.
2r	[1c	.	.
[2C/	.	.	.
=54	=54	=54	=54
4C/]	1c]	0r	0r
4D\	.	.	.
2E\	.	.	.
1F	1c	.	.
=55	=55	=55	=55
1F	2r	0r	0r
.	2.c\	.	.
1F	.	.	.
.	4B\	.	.
.	2c\	.	.
=56	=56	=56	=56
2r	2.A/	0r	0r
2.F\	.	.	.
.	4B\	.	.
.	2c\	.	.
4E\	.	.	.
2F\	[2d\	.	.
=57	=57	=57	=57
2D\	4d\]	0r	0r
.	4c\	.	.
2.G\	2d\	.	.
.	1B	.	.
4F\	.	.	.
2G\	.	.	.
=58	=58	=58	=58
1E	1G	0r	0r
[1C	2r	.	.
.	[2c\	.	.
=59	=59	=59	=59
1C]	2c\]	0r	0r
.	2A/	.	.
2r	2B\	.	.
[2F\	2c\	.	.
=60	=60	=60	=60
2F\]	2.d\	0r	0r
2D\	.	.	.
.	4c\	.	.
2E\	2B\	.	.
2F\	2A/	.	.
=61	=61	=61	=61
2.G\	2G/	0r	0r
.	1c	.	.
4F\	.	.	.
2E\	.	.	.
2D\	2B\	.	.
=62	=62	=62	=62
2C/	2c\	0r	0r
1F	2A/	.	.
.	1B	.	.
2E\	.	.	.
=63	=63	=63	=63
2F\	2A/	0r	0r
2D\	1d	.	.
2F\	.	.	.
2E\	2c\	.	.
=64	=64	=64	=64
2D\	2.d\	0r	0r
2.G\	.	.	.
.	4c\	.	.
.	4B\	.	.
4F\	4A/	.	.
4G\	4B\	.	.
4F\	4A/	.	.
=65	=65	=65	=65
2G\	2B\	0r	0r
2GG/	1G	.	.
1AA	.	.	.
.	2F#i/	.	.
=66	=66	=66	=66
0GGl	0Gl	0r	0r
!!LO:LB:i:g=z
=67||	=67||	=67||	=67||
*>C	*>C	*>C	*>C
*clefF4	*clefGv2	*clefGv2	*clefG2
*k[]	*k[]	*k[]	*k[]
*M2/1	*M2/1	*M2/1	*M2/1
*met(C|)	*met(C|)	*met(C2)	*met(C2)
!!primary-mensuration: met(C2)
!!section: Fuerunt
!!!OMD: Fuerunt
[0G	[0B	[0d	[0g
=68	=68	=68	=68
1G]	1B]	1d]	1g]
1F	1c	1f	1a
=69	=69	=69	=69
0F	0c	0f	0a
=70	=70	=70	=70
1F	1c	1f	1a
[1F	[1c	[1f	[1a
=71	=71	=71	=71
1F]	1c]	1f]	0a_
1F	1c	1f	.
=72	=72	=72	=72
1F	1c	1f	1a]
[1D	[1d	[1f	1a
=73	=73	=73	=73
2D\]	1d]	1f]	1a
2C/	.	.	.
1AA	1c	[1a	[1cc
=74	=74	=74	=74
0F	1A	2a\]	2cc\]
.	.	2g\	2b\
.	[1c	1f	1a
=75	=75	=75	=75
[0C	1c]	0e	0g
.	2B\	.	.
.	2A/	.	.
=76	=76	=76	=76
0C]	0G	1r	1r
.	.	1e	1g
=77	=77	=77	=77
0r	0r	1f	1a
.	.	1e	[1cc
=78	=78	=78	=78
1r	1r	0d	2cc\]
.	.	.	4b\
.	.	.	4a/
1BB	1G	.	1b
=79	=79	=79	=79
0C	1A	1c	0e
.	[1c	1A	.
=80	=80	=80	=80
0C	0c_	2G/	2r
.	.	1c	1e
.	.	2d\	2f/
=81	=81	=81	=81
0C	1c]	2e\	2g/
.	.	1f	1a
.	1c	.	.
.	.	2e\	2g/
=82	=82	=82	=82
[0F	1c	0f	2a/
.	.	.	1cc
.	[1c	.	.
.	.	.	2b\
=83	=83	=83	=83
1F]	1c]	1f	1a
1G	[1B	2e\	[1g
.	.	[2d\	.
=84	=84	=84	=84
0D	1B]	2d\]	1g]
.	.	2B\	.
.	1d	1A	1f#i
=85	=85	=85	=85
[0C	[0e	1r	[0g
.	.	1c	.
=86	=86	=86	=86
0C]	0e]	1.c	0g]
.	.	2c\	.
=87	=87	=87	=87
0r	1r	0G	0r
.	1d	.	.
=88	=88	=88	=88
1G	1.d	1r	0r
[1G	.	1g	.
.	2d\	.	.
=89	=89	=89	=89
2G\]	0B	1.g	0r
2G\	.	.	.
[1E	.	.	.
.	.	2g\	.
=90	=90	=90	=90
1E]	1.e	1e	0r
1A	.	1c	.
.	2d\	.	.
=91	=91	=91	=91
1G	1B	0g	1r
2E\	2c\	.	1g
2C/	[2e\	.	.
=92	=92	=92	=92
2.E\	4e\]	1e	1.g
.	4d\	.	.
.	1c	.	.
4F\	.	.	.
1G	.	1d	.
.	2B\	.	2g/
=93	=93	=93	=93
0C	1c	1c	0e
.	2r	2r	.
.	2c\	2e\	.
=94	=94	=94	=94
2r	2c\	2e\	1a
2C/	2c\	2e\	.
2C/	1c	1e	1g
2C/	.	.	.
=95	=95	=95	=95
0GG	0B	1.d	2r
.	.	.	2g/
.	.	.	2g/
.	.	4e\	2g/
.	.	4d\	.
=96	=96	=96	=96
0C	[0G	[0e	0g
=97	=97	=97	=97
0C	0G]	0e]	1g
.	.	.	2a/
.	.	.	[2cc\
=98	=98	=98	=98
0r	1r	1d	2cc\]
.	.	.	2b\
.	2r	1c	2.cc\
.	[2c\	.	.
.	.	.	4b\
=99	=99	=99	=99
0r	2c\]	1r	1g
.	2B\	.	.
.	1c	1A	1cc
=100	=100	=100	=100
2r	[0d	1G	0b
2GG/	.	.	.
2GG/	.	1G	.
2GG/	.	.	.
=101	=101	=101	=101
1D	0d]	1A	2r
.	.	.	2a/
[1D	.	[1F	2a/
.	.	.	2a/
=102	=102	=102	=102
1D]	2r	0F]	1b
.	2d\	.	.
1D	2d\	.	1a
.	2d\	.	.
=103	=103	=103	=103
0GG	1B	1G	0dd
.	1G	2B\	.
.	.	2c\	.
=104	=104	=104	=104
0r	0r	1d	1b
.	.	1e	1g
=105	=105	=105	=105
1D	[0A	1d	2r
.	.	.	1dd
1AA	.	1e	.
.	.	.	2cc\
=106	=106	=106	=106
1D	0A_	2r	2.dd\
.	.	1d	.
.	.	.	4cc\
2.F\	.	.	2a/
.	.	2c\	[2cc\
4G\	.	.	.
=107	=107	=107	=107
2A\	0A_	1A	2cc\]
2G\	.	.	2b\
2F\	.	1c	2a/
2E\	.	.	2g/
=108	=108	=108	=108
2D\	0A]	2d\	2f/
2C/	.	2e\	1g
1D	.	1d	.
.	.	.	2f#i/
=109	=109	=109	=109
0GG	1G	1r	1g
.	2r	1d	2r
.	[2d\	.	2g/
=110	=110	=110	=110
0r	2d\]	1e	1a
.	2c\	.	.
.	1d	[1f	1b
=111	=111	=111	=111
0r	2A/	2f\]	2.cc\
.	1c	1e	.
.	.	.	4b\
.	.	.	2a/
.	2B\	2d\	2g/
=112	=112	=112	=112
0r	2A/	2c\	2f/
.	2G/	2B\	1g
.	1A	1c	.
.	.	.	2f#i/
=113	=113	=113	=113
[0GGl	[0Gl	0d	[0gl
=114	=114	=114	=114
0GG]	0G]	0dl	0g]
==	==	==	==
*-	*-	*-	*-
!!!RDF**kern: l=long note in original notation
!!!RDF**kern: i=editorial accidental
!!!ENC:	Chris Gage 04-23-2013
!!!END:	2013/08/01/
!!!EED:	Jesse Rodin
!!!EEV:	2013/08/02/
!!!ONB:	Translated from MusicXML and edited on 2013/08/02/ by Craig Sapp
!!muse2ps: T^@{OPR}^u^@{ONM}{. }@{OTL}^C^@{COM}^i2I150v85,85,85,150Q16
